X: 7
T: No_16_Deer_and_Antelope_Song.krn
N: Derived from No_16_Deer_and_Antelope_Song.krn
%%abc-version 2.0
%%abcx-abcm2ps-target-version 5.9.1 (29 Sep 2008)
%%abc-creator hum2abc beta
%%abcx-conversion-date 2019/03/15 08:25:35
%%humdrum-veritas 381288659
%%humdrum-veritas-data 2586142720
%%linebreak <none>
%%barnumbers 0
L: 1/8
M: 2/4
K: D clef=bass
[K:clef=bass][M:2/4]A,A, A,A, | 
A,A, A,A, ]|:  
B,A, B,A, | 
EEE2 | 
ED/B,/A,2 | 
[M:3/4]z B,A,2B,A, | 
[M:2/4]F3E/F/ | 
E4 | 
D/E/D/B,/A,2 | 
EEE2 | 
D/E/D/B,/ A,A, | 
[M:3/4](DB,) DB, A, z | 
[M:2/4]D2D z | 
DA,A,2 | 
G, z G,A, | 
A,D A,A, | 
G,/ z/ A, A,A, | 
A,2A,A, | 
A,A, A,A, | 
[M:3/4]A,2z2A,A, [I:setbarnb 21]| 
A,2A,2A,2 :|]  
[M:2/4]A,2z2 |]  



